X: 31
T:New Land, The
R:Waltz
M:3/4
L:1/8
N:Composed by Otis Tomas
H:Recorded on Touchstone, The New Land (Green Linnet SIF 1040)
N:Transcribed by Bruce Thomson
K:F
|z3CDE|:F4FG|Ac3d2|c3AG2|F3G(3AGF|
B3AGA|Bd3f2|d3BG2|G3G(3AGF|A3FAF|
A2c2f2|a3gf2|d3efg|a3gf2|ge3c2|
d4-de|[1d3cAG:|[2d3efg|:a3gab|a2g2f2|
B4Bc|B2d2f2|g3fga|g2f2e2|A4AB|
A2c2e2|f3efg|f2e2d2|G4GA|G2F2D2|
cA3F2|GF3C2|D4-DE|D6:|

